import Sound.Tidal.MIDI.Context
import Sound.Tidal.MIDI.VolcaKeys

displayOutputDevices >>= putStrLn

devices <- midiDevices

bps(200/120)
hush
d1 $ n "[c2 e3 g4 c5 c4 c3]/3" # s "superpwm"

d1 $ n "[c2 e3 g4 c5 c4 c3]/3" # s "supersaw"
d1 $ n "[c2 e3 g4 c5 c4 c3]/3" # s "supersquare"

d1 $ n "[c2 e3 g4 c5 c4 c3]/3" # s "supercomparator"

d1 $ every 16 (density 24 . (|+| midinote "24") . (# sustain "0.3") . (# attack "0.05"))
  $ s "supercomparator/4" # midinote (fmap (+24) $ irand 24)
  # sustain "8" # attack "0.5" # hold "4" # release "4"
  # voice "0.5" # resonance "0.9" # lfo "1" # speed "30" # pitch1 "4"


d1 $ sound $ samples "arpy*8" (irand 30)
d1 $ sometimes (density 2) $ rarely (slow 8) $ sound "bd*8"
d1 $ whenmod 8 6 (rev) $ sound "bd*2 arpy*2 cp hh*22"
d1 $ randcat [sound "bd*2 sn", sound "jvbass*3", sound "drum*2", sound "ht mt"]

d1 $ whenmod 5 3 (striate 3) $ stack [
  sound "bd bd*2",
  sound "hh*2 [sn cp] cp future*4",
  sound (samples "arpy*8" (run 16))
] # speed "[[1 0.8], [1.5 2]*2]/3"

d1 $ superimpose (density 2) $ sound "bd sn [cp ht] hh"
d1 $ superimpose ((# speed "2") . (0.125 <~)) $ sound "bd sn cp hh"

d1 $ (chop 8 $ sound "breaks125") # unit "c" # coarse "1 2 4 8 16 32 64 128" # delay "0.5" # delayfeedback "0.7" # delaytime "0.3"
hush

d1 $ slow 2$weave 16(pan sine1)$map sound["[[odx*4[odx*2odx*8],[hh*4,~odx/12]*4],[blue/1]/2~~[~odx/13*2]]",(1/16)~>samples"jvbass*16""2 2[3 4]1"]

d1 $ sound (samples "{casio ~ bd*3, bd*2 rm*3, numbers lt [mt sn, lt*3 voodoo] sn bass3*2}" ("{7 2, 3 1 5}")) |+| end rand

d1 $ (echo (1/32) $ whenmod 8 6 (rev) $ density 4 $ striate 4 $ sound $ samples "[bd [sn]*3]*1/4" (slow 13 $ run 12))
  |+| speed "2"

d1 $ slow 2 $ spread' striate "[4 2 8 1]/3" $ jux palindrome $ sound "[jvbass*4 jvbass/5*8 ~ jvbass/9*6, drum*2 sn/2 drum/2*6 rave/3]"


d1 $ slowspread ($) [chop 2, chop 4, chop 6, chop 10, chop 20, chop 32, stut 4 0.25 0.25]
$ slowcat [
sound "[hardcore:4(3,8), hardcore:5(7,8)]" |+| accelerate "-1",
sound "[hardcore:4(3,8), hardcore:5(7,8)]" |+| pan sine1
]

d1 $ slowcat [
sound "[hardcore:4(3,8), hardcore:5(7,8)]" |+| accelerate "-1",
sound "[hardcore:4(3,8), hardcore:5(7,8)]" |+| pan sine1,
chop 2 $ sound "[hardcore:4(3,8), hardcore:5(7,8)]"
]

d1 $ silence

m1 <- midiStream devices "Arturia KeyStep 32" 3 synthController
/*m1 <- midiStream devices "Arturia KeyStep 32" 3 keysController*/
m1 $ n "cs5 a4"

m1 $ stack [
  n "[f6 af6 bf6 c7]/4",
  midinote "128*32" # modwheel sine1
]


m2 $ note "0 2 4 5 7 9 11 120"

m2 $ every 4 (slow 1.5) $ slow 2 $ n (offadd 0.25 (7) "f3(3,8) g5*3")
  # lfo "0.1"
  # cutoff (slow 4 sine1)
m1 $ midinote "40 52"

d1 $ m1

d1 $ sound "superhat:0*8"

hush

d1 $ sound "superhat:0*8" # sustain "0.125!6 1.2" # accelerate "[0.5 -0.5]/4"

d1 $ n "[c2 e3 g4 c5 c4 c3]" # s "[superpwm supersaw ]/24" # sustain "0.5"
  # voice "0.9" # semitone "7.9" # resonance "0.3" # lfo "3" # pitch1 "0.5" # speed "0.25 1"

d1 $ s "supernoise/8" # midinote (fmap (+30) $ irand 10) # sustain "8"
   # accelerate "0.5" # voice "0.5" # pitch1 "0.15" # slide "-0.5" # resonance "0.7"
   # attack "1" # release "20" # room "0.9" # size "0.9" # orbit "1"


d1 $ sound "bd(2,8)" # gain "0.9" # sustain "0.9"
d2 $ sound (samples "bass3*6" (run 2)) # speed "2" # cut "10" # sustain "8"
hush
d1 $ stack [
   sound "bd(2,8)" # gain "0.9" # sustain "0.9",
   sound (samples "glitch*3" (run 2)) # speed "0.5" # cut "2"]

   d1 $ stack [
     sound "bd bd/4",
     sound "hh(5,8)"
     ] # nudge "[0 0.04]*4"


     d1 $ sound "superhat:0*8" # sustain "0.125!6 1.2" # accelerate "[0.5 -0.5]/4"

     d1 $ n (slow 8 "[[c5 e5 g5 c6]*4 [b4 e5 g5 b5]*4]") # s "superpiano"
       # velocity "[1.20 0.9 0.8 1]"

       d1 $ s "supernoise/8" # midinote (fmap (+30) $ irand 10) # sustain "8"
        # accelerate "0.5" # voice "0.5" # pitch1 "0.15" # slide "-0.5" # resonance "0.7"
        # attack "1" # release "20" # room "0.9" # size "0.9" # orbit "1"


d1 $ sound "bd*16" # pan (slowcat [sine1, saw1, square1, tri1])
d1 $ sound "sn:2*16" # (speed $ scale 0.5 3 sine1) |*| (speed $ slow 4 saw1)

d1 $ sound "bd*16" # pan (slow 8 $ saw1)
d1 $ sound "bd*8 sn*8" # pan (density 1.75 $ tri1)
d1 $ sound "bd*8 sn*8" # speed (density 2 $ tri)
d2 $ sound "{bd sn:2 [~ bd] [sn:2/2 sn:2], [hh([23 27]/2,32,2)]/16}"

d2 $ n "[c2 e3 g4 c5 c4 c3]*4/3" # s "superchip" # sustain "0.1"
  # pitch2 "[1.2 1.5 2 3]" # pitch3 "[1.44 2.25 4 9]"
  # voice (slow 4 "0 0.25 0.5 0.75") # slide "[0 0.1]/8" # speed "-4"

d2 $ every 4 (echo (negate 3/32)) $ n "c5*4" # s "supernoise"
  # accelerate "-2" # speed "1" # sustain "0.1 ! ! 1" # voice "0.0"
hush
d3 $ n (slow 8 "[[c5 e5 g5 c6]*4 [b4 e5 g5 b5]*4]") # s "superpiano"
  # velocity "[1.20 0.9 0.8 1]"

  d2 $ n (slow 8 $ fmap (+4) "[[c2,c4,e4,g4,c5,d5]*4 [e2,e4,g4,b5,e5]*4]") # s "superpiano"
    # velocity (slow 8 $ scale 0.8 1.1 sine1) # sustain "8"


hush
d2 $ sound "[sn*2 imp bd*3]" |+| speed "1"
